svg/fluentui-system-icons/ic_fluent_math_format_linear_20_filled.svg

<svg width="20" height="20" viewBox="0 0 20 20" fill="none" xmlns="http://www.w3.org/2000/svg">
<path d="M9.01146 3.18094C9.29248 2.93969 9.70752 2.93969 9.98854 3.18094L11.7385 4.68331C12.0528 4.95312 12.0889 5.42662 11.8191 5.74091C11.5492 6.05519 11.0757 6.09124 10.7615 5.82143L9.5 4.73847L8.23854 5.82143C7.92425 6.09124 7.45075 6.05519 7.18094 5.74091C6.91113 5.42662 6.94718 4.95312 7.26146 4.68331L9.01146 3.18094ZM11.3189 8.88526C11.6678 8.4791 11.8541 8.49934 11.8692 8.50098C11.9181 8.5061 12.021 8.55111 12.1318 8.698L13.4466 10.7491L10.2397 13.7269C9.93614 14.0087 9.91857 14.4833 10.2004 14.7868C10.4823 15.0903 10.9568 15.1079 11.2604 14.8261L14.2691 12.0322L15.6186 14.1376L15.6275 14.1511C16.0761 14.8187 16.7438 15.1054 17.3942 15.0599C18.0029 15.0173 18.5817 14.6821 18.8933 14.162C19.1063 13.8067 18.9908 13.3461 18.6355 13.1332C18.2803 12.9202 17.8196 13.0356 17.6067 13.3909C17.5632 13.4634 17.442 13.5529 17.2895 13.5635C17.2229 13.5682 17.158 13.5568 17.0962 13.5264C17.0367 13.4972 16.9578 13.4395 16.8764 13.3203L15.386 10.9951L18.2604 8.32607C18.5639 8.04422 18.5815 7.56967 18.2996 7.26614C18.0178 6.9626 17.5432 6.94503 17.2397 7.22688L14.5635 9.71193L13.3814 7.86788C13.3737 7.85586 13.3657 7.84405 13.3573 7.83249C13.1064 7.48628 12.6609 7.07584 12.0262 7.00922C11.353 6.93855 10.7225 7.27762 10.1811 7.90785C9.91119 8.22206 9.9471 8.69557 10.2613 8.96547C10.5755 9.23538 11.049 9.19947 11.3189 8.88526ZM7.66759 7.84796C7.31781 7.33565 6.71767 7.09302 6.14723 7.02336C5.55637 6.95121 4.88538 7.04522 4.23056 7.31899C2.89756 7.8763 1.62781 9.17546 1.1086 11.3984C0.881385 12.3712 1.01703 13.2415 1.45633 13.9395C1.88821 14.6257 2.56677 15.0717 3.29934 15.3027C4.73773 15.7561 6.57904 15.44 7.77135 14.2147C8.06023 13.9179 8.05376 13.443 7.7569 13.1542C7.46004 12.8653 6.98521 12.8717 6.69634 13.1686C5.9431 13.9427 4.71099 14.1749 3.75033 13.8721C3.28337 13.7248 2.931 13.4665 2.72583 13.1405C2.60989 12.9563 2.52496 12.7255 2.5045 12.4377C4.627 12.6963 6.13202 12.1451 7.04494 11.215C7.54651 10.704 7.84449 10.099 7.953 9.51413C8.05842 8.94589 7.99429 8.32645 7.66759 7.84796ZM5.97444 10.1642C5.47982 10.6682 4.50855 11.1458 2.80379 10.9627C3.28816 9.68245 4.08924 9.00389 4.80916 8.70291C5.24763 8.51959 5.65722 8.47467 5.96541 8.5123C6.29402 8.55243 6.41141 8.6683 6.4288 8.69377C6.46928 8.75306 6.5345 8.93688 6.47817 9.24052C6.42492 9.52751 6.27007 9.86305 5.97444 10.1642Z" fill="#212121"/>
</svg>

<svg xmlns="http://www.w3.org/2000/svg" width="20" height="20"><path d="M9.011 3.18a.75.75 0 0 1 .978 0l1.75 1.503a.75.75 0 1 1-.978 1.138L9.5 4.738 8.239 5.821a.75.75 0 0 1-.978-1.138l1.75-1.502Zm2.308 5.705c.349-.406.535-.386.55-.384.05.005.152.05.263.197l1.315 2.051-3.207 2.978a.75.75 0 1 0 1.02 1.1l3.01-2.795 1.349 2.106.008.013c.45.668 1.117.954 1.767.909.609-.043 1.188-.378 1.5-.898a.75.75 0 1 0-1.287-.771.421.421 0 0 1-.51.135.585.585 0 0 1-.22-.206l-1.491-2.325 2.874-2.669a.75.75 0 0 0-1.02-1.1l-2.676 2.486-1.183-1.844a.73.73 0 0 0-.024-.036c-.25-.346-.696-.756-1.33-.823-.674-.07-1.304.269-1.846.899a.75.75 0 1 0 1.138.977ZM7.668 7.848c-.35-.512-.95-.755-1.52-.825-.592-.072-1.263.022-1.917.296-1.333.557-2.603 1.856-3.122 4.08-.228.972-.092 1.843.347 2.54.432.687 1.11 1.133 1.843 1.364 1.439.453 3.28.137 4.472-1.088a.75.75 0 1 0-1.075-1.046c-.753.774-1.985 1.006-2.946.703-.467-.147-.819-.405-1.024-.732a1.497 1.497 0 0 1-.221-.702c2.122.258 3.627-.293 4.54-1.223.502-.511.8-1.116.908-1.7.105-.57.041-1.189-.285-1.667Zm-1.694 2.316c-.494.504-1.465.982-3.17.799.484-1.28 1.285-1.96 2.005-2.26.439-.183.848-.228 1.156-.19.329.04.446.155.464.18.04.06.106.244.05.548a1.815 1.815 0 0 1-.505.923Z"/></svg>
